icons/archive-outline.svg

<svg xmlns="http://www.w3.org/2000/svg" width="24" height="24" viewBox="0 0 24 24">
    <path fill="#3A3A47" fill-rule="evenodd" d="M20 2c1.333 0 2 .666 2 1.998v2.997c0 .666-.33 1-.993 1H21v11.988c0 1.307-.667 1.973-2 1.998-1.333.025-6 .025-14 0-1.333 0-2-.666-2-1.998V7.994c-.667 0-1-.333-1-.999V3.998C2 2.666 2.68 2 4.038 2H20zm-1 5.994H5v11.99h14V7.993zm-4 1.999c.667 0 1 .333 1 .999 0 .666-.333.999-1 .999H9c-.667 0-1-.333-1-1 0-.665.333-.998 1-.998h6zm5-5.995H4v1.998h16V3.998z"/>
</svg>

<svg width="24" height="24" viewBox="0 0 24 24" fill="none" xmlns="http://www.w3.org/2000/svg">
<path fill-rule="evenodd" clip-rule="evenodd" d="M3 7.994C2.333 7.994 2 7.661 2 6.995V3.998C2 2.666 2.68 2 4.038 2H20C21.333 2 22 2.666 22 3.998V6.995C22 7.661 21.67 7.995 21.007 7.995H21V19.983C21 21.29 20.333 21.956 19 21.981C17.667 22.006 13 22.006 5 21.981C3.667 21.981 3 21.315 3 19.983V7.994ZM4 3.998V5.996H20V3.998H4ZM5 7.994V19.984H19V7.993H5V7.994ZM9 9.993H15C15.667 9.993 16 10.326 16 10.992C16 11.658 15.667 11.991 15 11.991H9C8.333 11.991 8 11.658 8 10.991C8 10.326 8.333 9.993 9 9.993Z" fill="#3A3A47"/>
</svg>
